!!!PDT:	1923
!!!LANG: Non-Tone
!!!LING_GROUP: Siouan
!!!REG: Dakotas
!!!COM: Anon.
!!!OTL: Song of the Man Who Married the Birds
!!!ODT: <1918//
!!!MPN: Haretupa [Wolf Head]
!!!MLC: Fort Berthold Reservation, North Dakota, United States of America
!! Song was recorded during either the summer of 1912, 1915, or 1918.
!!!AGN: monody
!!!SOCIAL_FUNCTION: Songs Connected With Legends and Folk-Tales
!!!AMT: irregular
!!!RWG: Transcribed pitches, durations, and meters are only approximate.
!! Drum not recorded.
**kern
*ICvox
*Ifemale
*clefF4
*k[f#c#g#d#a#]
*M2/4
*MM104
=1-
8g#
8g#
[4g#
=2
4g#]
16.g#
32d#
8d#
=3
16g#
8.d#
8d#
8g#
=4
8.d#
16d#
4c#
=5
16c#
16A#
8G#
4G#
=6
16c#
16G#
8G#
16c#
16G#
8G#
=7
(12B
12B
12B)
4G#
==
*-
!!!CNT: Mandan
!!!TXO: Mandan
!!!OCY: United States
!!!OCL: Frances Densmore
!!!YOR: Frances Densmore, "Mandan and Hidatsa Music",
!!!YOR: Bulletin 80, page 92, No. 35
!!!PPR: Smithsonian Institution, Bureau of American Ethnology
!!!PPR: Government Printing Office
!!!PDT: 1923
!!!PPP: Washington, DC, United States of America
!!!YEC: Electronic Copyright 2000 David Huron
!!!YER: August 2000
!!!YEN: United States of America
!!!ENC: David Huron
!!!RDT: August 16, 2000
!!!EEV: Release 1.0
!!!AIN: tom, vox
